modules/feathericon/icons/layout.svg

<svg width="14" height="10" xmlns="http://www.w3.org/2000/svg"><path d="M0 0h9v10H0V0zm10 0h4v3h-4V0zm0 4h4v6h-4V4z" fill="#000" fill-rule="evenodd"/></svg>

<?xml version="1.0" encoding="UTF-8"?>
<svg width="14px" height="10px" viewBox="0 0 14 10" version="1.1" xmlns="http://www.w3.org/2000/svg" xmlns:xlink="http://www.w3.org/1999/xlink">
    <!-- Generator: sketchtool 48.1 (47250) - http://www.bohemiancoding.com/sketch -->
    <title>layout</title>
    <desc>Created with sketchtool.</desc>
    <defs></defs>
    <g id="text-edit" stroke="none" stroke-width="1" fill="none" fill-rule="evenodd">
        <g id="layout" fill="#000000">
            <path d="M1.13908882e-13,-4.4408921e-16 L9,-4.4408921e-16 L9,10 L1.14033782e-13,10 L1.13908882e-13,-4.4408921e-16 Z M10,1.13242769e-13 C10,1.13242769e-13 14,-4.99580049e-16 14,-4.44068898e-16 C14,-4.99580049e-16 14,3 14,3 L10,3 L10,1.13242769e-13 Z M10,4 L14,4 L14,10 L10,10 L10,4 Z" id="Shape"></path>
        </g>
    </g>
</svg>
